X:255
M:6/8
L:1/4
K:F
F/4A/4 | c c/ d c/ | c/ A2 F/ | G F/ F D/ | C3/2 F G/ | A A/ A A/ | d c/ A F/ | G3- | G3/2 (F A/) | c c/ d c/ | c/A2 F/ | G F/ F D/ | C3/2 F G/ | A A/ G F/ | G G/ F E/ | F3- | F3/2 z/ F | F/ B B B/ | B/ d2 d/ | d/ c c A/ | c3/2 (A G/) | F F/ F F/ | d c/ A F/ | G3- | G3/2 F A/ | c/ c d c/ | c/ A2 F/ | G F/ F D/ | C3/2 !sintro!F G/ | A A/ G F/ | G G/ F E/ | F3- | F3/2 z/ !eintro!|]
